X: 2140
T: PRETTY PEG
C:
Q: "Reel."
R: Reel.
%R: reel
B: James Kerr "Merry Melodies" v.2 p.17 #140
Z: 2016 John Chambers <jc:trillian.mit.edu>
M: C
L: 1/8
K: D
A |\
d2(fd) AFDF | d2(fd) (e/f/g) (fe) |\
d2(fd) AFDF | GEFD CEE :|\
uA |\
(F/E/D) (AD) BDAD | (G/F/E) (F/E/D) CEEG |
(F/E/D) (AD) BDAD | (G/F/E) (F/E/D) A,DDA |\
(F/E/D) (dD) cDBD | (AD) (F/E/D) CEEG |\
FAdf ecdB | AFGE FDD |]
